images/Logos.svg/facebook-3.svg

<svg width="20" height="20" viewBox="0 0 20 20" fill="none" xmlns="http://www.w3.org/2000/svg">
<g clip-path="url(#clip0)">
<path d="M13.3308 3.32083H15.1566V0.140833C14.8416 0.0975 13.7583 0 12.4966 0C9.8641 0 8.06076 1.65583 8.06076 4.69917V7.5H5.15576V11.055H8.06076V20H11.6224V11.0558H14.4099L14.8524 7.50083H11.6216V5.05167C11.6224 4.02417 11.8991 3.32083 13.3308 3.32083Z" fill="#AFB1B8"/>
</g>
<defs>
<clipPath id="clip0">
<rect width="20" height="20" fill="white"/>
</clipPath>
</defs>
</svg>

<svg xmlns="http://www.w3.org/2000/svg" width="20" height="20" fill="none" xmlns:v="https://vecta.io/nano"><g clip-path="url(#A)"><path d="M13.33 3.32h1.826V.14C14.842.098 13.758 0 12.497 0 9.864 0 8.06 1.656 8.06 4.7v2.8H5.156v3.555H8.06V20h3.562v-8.944H14.4l.442-3.555h-3.23v-2.45c.001-1.027.277-1.73 1.71-1.73z" fill="#afb1b8"/></g><defs><clipPath id="A"><path fill="#fff" d="M0 0h20v20H0z"/></clipPath></defs></svg>
